!!! OTL: Berkowitz479
!!! Chapter: 1
!!! Section: IV
!!! Page: 119
!!! Mode: 
!!! Encoder: DJB
**kern
*staff1
*I"Piano
=1-
*clefF4
*k[f#]
*G:
*M4/4
2G\
2C#/
=2
2D\
2GG#/
=3
8AA/L
8BB/
8C/
8BB/J
8C\L
8D\
8E\
8D\J
=4
8E\L
8F#\
8G\
8A\J
4B\
4A\
=5
2G#\
2D\
=6
2C#/
2G\
=7
2F#\
2C/
=8
2BB/
2Fn\
=9
8E\L
8D\J
[4C/
8C/L]
8BB/J
[4AA/
=10
!!linebreak:original
8AA/L]
8GG/
8FF#/
8GG/J
8AA/L
8BB/
8C/
8D/J
=11
8E\L
8F#\
8G\
8A\J
4B\
4G#\
=12
4A\
4D\
4G\
4r
==
*-
